packages/icons/src/pencil-line-fill.svg

<svg width="24" height="24" viewBox="0 0 24 24" fill="none" xmlns="http://www.w3.org/2000/svg">
<path fill-rule="evenodd" clip-rule="evenodd" d="M12.06 7.19006L15.81 10.9401L6.75 20.0001H3V16.2501L12.06 7.19006ZM20 17.0001V20.0001H10L13 17.0001H20ZM14.96 4.29006C15.32 3.93006 15.8845 3.90237 16.276 4.20698L16.37 4.29006L18.71 6.63006C19.07 6.99006 19.0977 7.55456 18.7931 7.94602L18.71 8.04006L16.88 9.87006L13.13 6.12006L14.96 4.29006Z" fill="black"/>
</svg>

<svg xmlns="http://www.w3.org/2000/svg" width="24" height="24" fill="none" viewBox="0 0 24 24">
  <path fill="#000" fill-rule="evenodd" d="m12.06 7.19 3.75 3.75L6.75 20H3v-3.75l9.06-9.06ZM20 17v3H10l3-3h7ZM14.96 4.29a.996.996 0 0 1 1.316-.083l.094.083 2.34 2.34c.36.36.388.925.083 1.316l-.083.094-1.83 1.83-3.75-3.75 1.83-1.83Z" clip-rule="evenodd"/>
</svg>
